X:1
T: Gillan's Reel
C:Peter Milne
R:Reel
Q: 232
K:A
M:4/4
L:1/8
|:E|A2 cA B2 dB|c2 ec dB GB|A2 ce fg af|ed cB AG FE|
AE Ac BE Bd|cA ce dB GB|A1/2A1/2A ce fg af|ed cB A3g|
a2 fa g2 eg|f2 df ec BA|a2 fa ga ba|gf e^d e2 fg|
ag fa gf eg|fe df ed cB|A1/2A1/2A ce fg af|1ec dB AG FE:|2ec dB A3||
